X: 23447
T: Let Me In This Ae Night
R: reel
M: 4/4
K: Fmajor
A|:FD Dc d2 dA|c2 cG AB A/G3/2|FD D^c de fd|cB GF GB AG|
FD Dc de dA|cd cB AB GA|FD D^c de fd|cA GF G2 AG:|
|:FD DE FG AF|G/G/G Gd cB AG|FD D^c de fd|cA GF G2 AG|
FD DE FG AF|G/G/G Gd cB AG|FD D^c de fd|cA GF GB AG:|

